packages/dnb-ui-lib/assets/icons/link_out.svg

<svg width="16" height="16" viewBox="0 0 16 16" fill="none" xmlns="http://www.w3.org/2000/svg">
<g clip-path="url(#clip0)">
<path d="M11 0C10.5858 0 10.25 0.335786 10.25 0.75C10.25 1.16421 10.5858 1.5 11 1.5V0ZM15 0.75H15.75C15.75 0.335786 15.4142 0 15 0V0.75ZM14.25 4.75C14.25 5.16421 14.5858 5.5 15 5.5C15.4142 5.5 15.75 5.16421 15.75 4.75H14.25ZM15.75 8.75C15.75 8.33579 15.4142 8 15 8C14.5858 8 14.25 8.33579 14.25 8.75H15.75ZM15 15.25V16C15.4142 16 15.75 15.6642 15.75 15.25H15ZM1 15.25H0.25C0.25 15.6642 0.585786 16 1 16L1 15.25ZM1 0.75V0C0.585786 0 0.25 0.335786 0.25 0.75L1 0.75ZM6.75 1.5C7.16421 1.5 7.5 1.16421 7.5 0.75C7.5 0.335786 7.16421 0 6.75 0V1.5ZM9.46967 5.21967C9.17678 5.51256 9.17678 5.98744 9.46967 6.28033C9.76256 6.57322 10.2374 6.57322 10.5303 6.28033L9.46967 5.21967ZM14.25 0.75V4.75H15.75V0.75H14.25ZM14.25 8.75V15.25H15.75V8.75H14.25ZM15 14.5H1V16H15V14.5ZM1.75 15.25V0.75H0.25V15.25H1.75ZM1 1.5H6.75V0H1V1.5ZM11 1.5H15V0H11V1.5ZM10.5303 6.28033L15.5303 1.28033L14.4697 0.21967L9.46967 5.21967L10.5303 6.28033Z" fill="black"/>
</g>
<defs>
<clipPath id="clip0">
<path d="M0 0H16V16H0V0Z" fill="white"/>
</clipPath>
</defs>
</svg>

<svg width="16" height="16" viewBox="0 0 16 16" fill="none" xmlns="http://www.w3.org/2000/svg"><g clip-path="url(#clip0)"><path d="M11 0a.75.75 0 000 1.5V0zm4 .75h.75A.75.75 0 0015 0v.75zm-.75 4a.75.75 0 001.5 0h-1.5zm1.5 4a.75.75 0 00-1.5 0h1.5zm-.75 6.5V16a.75.75 0 00.75-.75H15zm-14 0H.25c0 .414.336.75.75.75v-.75zM1 .75V0a.75.75 0 00-.75.75H1zm5.75.75a.75.75 0 000-1.5v1.5zm2.72 3.72a.75.75 0 001.06 1.06L9.47 5.22zM14.25.75v4h1.5v-4h-1.5zm0 8v6.5h1.5v-6.5h-1.5zM15 14.5H1V16h14v-1.5zm-13.25.75V.75H.25v14.5h1.5zM1 1.5h5.75V0H1v1.5zm10 0h4V0h-4v1.5zm-.47 4.78l5-5L14.47.22l-5 5 1.06 1.06z" fill="#000"/></g><defs/></svg>
